X:1
T:[ID 7-200]
T:[ID 7-200]
T:Bezeichnung standardisiert: Menuett Menuet
T:Urheber unbekannt Datum in der hier transkribierten schriftlichen Quelle: 1776 - 1791
C:Urheber unbekannt
C:Datum in der hier transkribierten schriftlichen Quelle: 1776 - 1791
L:1/8
M:3/4
K:Bb
V:1 treble 
V:1
 B2 dBfd | b2 f2 d2 | B2 g2 f2 | e4 d2 | F2 AFcA | fcafg=e | f2 A2 G2 | F6 :: F2 AFcA | F2 f2 e2 | %10
 F2 AFcA | F2 e2 d2 | B2 dBfd | b2 fdec | dc B2 A2 | B6 :| %16

